symbols/web/luggage/materialsymbolssharp/luggage_wght600gradN25_20px.svg

<svg xmlns="http://www.w3.org/2000/svg" height="20" width="20"><path d="M3.771 17.896V4.604h3.417V1.167h5.624v3.437h3.417v13.292h-2.187q-.021.416-.323.708t-.719.292q-.438 0-.729-.292-.292-.292-.313-.708H8.042q-.021.416-.323.708T7 18.896q-.417 0-.719-.292t-.323-.708ZM8.958 4.604h2.084V2.938H8.958Zm-3 11.104h8.084V6.792H5.958Zm.625-.666h1.605V7.458H6.583Zm2.625 0h1.584V7.458H9.208Zm2.604 0h1.605V7.458h-1.605Zm-5.854.666V6.792Z"/></svg>

<svg xmlns="http://www.w3.org/2000/svg" height="20" width="20"><path d="M3.771 17.896V4.604H7.188V1.167H12.812V4.604H16.229V17.896H14.042Q14.021 18.312 13.719 18.604Q13.417 18.896 13 18.896Q12.562 18.896 12.271 18.604Q11.979 18.312 11.958 17.896H8.042Q8.021 18.312 7.719 18.604Q7.417 18.896 7 18.896Q6.583 18.896 6.281 18.604Q5.979 18.312 5.958 17.896ZM8.958 4.604H11.042V2.938H8.958ZM5.958 15.708H14.042V6.792H5.958ZM6.583 15.042H8.188V7.458H6.583ZM9.208 15.042H10.792V7.458H9.208ZM11.812 15.042H13.417V7.458H11.812ZM5.958 15.708V6.792Z"/></svg>
